assets/ai/ai-philpapers-square.svg

<svg xmlns="http://www.w3.org/2000/svg" width="100%" height="100%" viewBox="-75.52 -43.52 599.04 599.04"><path d="M 48 32 C 21.5 32 0 53.5 0 80 L 0 432 C 0 458.5 21.5 480 48 480 L 400 480 C 426.5 480 448 458.5 448 432 L 448 80 C 448 53.5 426.5 32 400 32 L 48 32 z M 181.64062 96 L 238.07812 96 A 65.328742 65.322487 0 0 1 266.04883 109.72266 A 70.318365 70.311637 0 0 1 286.64062 137.9082 A 98.091383 98.081991 0 0 1 293.84961 175.94727 C 293.84961 200.88334 285.60067 220.84912 269.09766 235.84375 A 56.931208 56.92576 0 0 1 244.96289 249.36328 L 244.96289 249.36523 C 235.94877 251.80904 223.09331 253.02633 206.39453 253.01562 L 181.64062 253.01562 L 181.64062 96 z M 64 96.015625 L 96.490234 96.015625 A 46.111872 46.107463 0 0 1 101.26953 97.996094 A 41.375662 41.371699 0 0 1 117.94727 113.03125 L 117.94922 113.03125 A 51.757447 51.752493 0 0 1 124.36719 132.10547 A 224.30123 224.27977 0 0 1 126.26953 165.59766 L 126.26953 351.84766 C 126.26953 369.20517 125.34262 382.00728 123.48633 390.25781 A 40.906577 40.902666 0 0 1 112.65625 410.72461 A 44.375926 44.37168 0 0 1 106.54492 416 L 64 416 L 64 96.015625 z M 301.91211 96.015625 L 384 96.015625 L 384 416 L 201.44336 416 A 44.400899 44.396651 0 0 1 195.33203 410.72461 A 42.773425 42.769331 0 0 1 184.5957 390.13477 C 182.65702 381.79203 181.6875 369.02903 181.6875 351.84766 L 181.6875 261.11914 L 231.19531 261.11914 C 253.09212 261.11914 266.90663 260.8686 272.64062 260.36328 C 290.66921 258.84735 306.0023 254.38135 318.63672 246.9668 C 342.90573 232.65216 355.04102 210.07835 355.04102 179.24219 C 355.04102 148.91136 343.07535 124.64904 319.14648 106.45703 A 87.061666 87.053333 0 0 0 301.91211 96.015625 z"/></svg>

<svg xmlns="http://www.w3.org/2000/svg" width="100%" height="100%" viewBox="-75.52 -43.52 599.04 599.04"><path d="M48 32C21.5 32 0 53.5 0 80v352c0 26.5 21.5 48 48 48h352c26.5 0 48-21.5 48-48V80c0-26.5-21.5-48-48-48H48zm133.64 64h56.438a65.329 65.322 0 0127.97 13.723 70.318 70.312 0 0120.593 28.185 98.091 98.082 0 017.209 38.04c0 24.935-8.25 44.901-24.752 59.896a56.931 56.926 0 01-24.135 13.52v.001c-9.014 2.444-21.87 3.661-38.568 3.65H181.64V96zM64 96.016h32.49a46.112 46.107 0 014.78 1.98 41.376 41.372 0 0116.677 15.035h.002a51.757 51.752 0 016.418 19.074 224.301 224.28 0 011.903 33.493v186.25c0 17.357-.927 30.16-2.784 38.41a40.907 40.903 0 01-10.83 20.467 44.376 44.372 0 01-6.111 5.275H64V96.016zm237.912 0H384V416H201.443a44.4 44.397 0 01-6.111-5.275 42.773 42.77 0 01-10.736-20.59c-1.939-8.343-2.909-21.106-2.909-38.287v-90.729h49.508c21.897 0 35.712-.25 41.446-.756 18.028-1.516 33.361-5.982 45.996-13.396 24.269-14.315 36.404-36.889 36.404-67.725 0-30.33-11.966-54.593-35.895-72.785a87.062 87.053 0 00-17.234-10.441z"/></svg>
